X:1
T:Title
%%score 1 { 2 | 3 }
L:1/8
Q:1/4=95
M:4/4
K:Bb
V:1 treble nm="Grand Piano, Soprano"
V:2 bass nm="Choir Pad, Jacob’s Dream, Crosby"
V:3 bass 
V:1
 [DF]>[_D=E] [=DF]>[_EG] [DF]2 [FB]2 | [FA]>[FG] [FA]>[FB] [Fc]4 | %2
w: By~William~Howard~Doane * * * * *||
 [Fd]>[Ec] [DB]>[EG] [DF]2 [FB]2 | [FA]>[Fc] [=EB]>[EG] F4 | [DF]>[_D=E] [=DF]>[_EG] [DF]2 [FB]2 | %5
w: |||
 [FA]>[FG] [FA]>[FB] [Fc]4 | [^Fd]>[Fc] [FB]>[FA] G2 [GB]2 | F>[FB] [FB]>[FA] [FB]4 | %8
w: |||
 [Ac]4- [Ac]>[Fc] [FB]>[Fc] | [Fd]2 [FB]4 z2 | [Ff]4- [Ff]>[Fd] [Fc]>[FB] | [Fc]2 [Fd]2 [Fe]4 | %12
w: ||||
 [Fd]4- [Fd]>[Fd] [Fc]>[FB] | [EG]2 [GB]4 z2 | [Fd]>[Fc] [FB]>[Fd] [Ec]2 [EG]>[FA] | [DB]8 |] %16
w: ||||
V:2
 B,>B, B,>B, B,2 B,2 | C>B, C>D A,4 | B,>B, B,>B, B,2 D2 | C>A, G,>B, A,4 | B,>B, B,>B, B,2 B,2 | %5
 C>B, C>D A,4 | A,>A, D>C B,2[K:treble] _D2 | D>D D>E D4 | C2 F2 F>E D>A, | B,2 D2 D2 z2 | %10
 D2 D2 D>[K:bass]B, A,>B, | A,2 B,2 C4 | B,2 B,2 B,>B, A,>B, | B,2 B,2 B,2 z2 | %14
 B,>E D>B, A,2 B,>C | B,8 |] %16
V:3
 B,,>B,, B,,>B,, B,,2 B,,2 | F,>F, F,>F, F,4 | B,,>B,, B,,>B,, B,,2 B,,2 | C,>C, C,>C, F,4 | %4
 B,,>B,, B,,>B,, B,,2 D,2 | F,>F, F,>F, F,4 | D,>D, D,>D, E,2 =E,2 | F,>F, F,>F, B,,4 | %8
 F,2 F,2 F,>F, F,>F, | B,,2 B,,2 B,,2 z2 | B,2 B,2 B,>B,, C,>D, | F,2 F,2 F,4 | %12
 B,,2 B,,2 B,,>B,, C,>D, | E,2 E,2 E,2 z2 | F,>F, F,>F, F,2 F,>F, | B,,8 |] %16

